public/icons/secure.svg

<svg width="56" height="56" viewBox="0 0 56 56" fill="none" xmlns="http://www.w3.org/2000/svg">
<rect width="56" height="56" rx="28" fill="#E8F1FC"/>
<path fill-rule="evenodd" clip-rule="evenodd" d="M34.2898 21.0865L32.7423 20.4L29.1157 18.947C28.3996 18.6601 27.6004 18.6601 26.8843 18.947L23.2577 20.4L21.7102 21.0865C20.6871 21.5403 19.9999 22.5244 20 23.6436C20.0002 25.6176 20.1502 28.7662 20.9938 30.85C22.0707 33.5103 24.9661 35.6495 26.679 36.7311C27.4913 37.2441 28.5087 37.2441 29.321 36.7311C31.0339 35.6495 33.9293 33.5103 35.0062 30.85C35.8498 28.7662 35.9998 25.6176 36 23.6436C36.0001 22.5244 35.3129 21.5403 34.2898 21.0865ZM30.6961 27.2071C31.0866 26.8166 31.0866 26.1834 30.6961 25.7929C30.3056 25.4023 29.6724 25.4023 29.2819 25.7929L27.3431 27.7316L27.0613 27.4497C26.6707 27.0592 26.0376 27.0592 25.647 27.4497C25.2565 27.8402 25.2565 28.4734 25.647 28.8639L26.636 29.8529C27.0266 30.2434 27.6597 30.2434 28.0503 29.8529L30.6961 27.2071Z" fill="#093160"/>
</svg>

<svg xmlns="http://www.w3.org/2000/svg" width="56" height="56" fill="none"><rect width="56" height="56" fill="#E8F1FC" rx="28"/><path fill="#093160" fill-rule="evenodd" d="m34.29 21.087-1.548-.687-3.626-1.453a3 3 0 0 0-2.232 0L23.258 20.4l-1.548.687c-1.023.453-1.71 1.437-1.71 2.557 0 1.974.15 5.122.994 7.206 1.077 2.66 3.972 4.8 5.685 5.881a2.46 2.46 0 0 0 2.642 0c1.713-1.081 4.608-3.22 5.685-5.881.844-2.084.994-5.232.994-7.206 0-1.12-.687-2.104-1.71-2.557m-3.594 6.12a1 1 0 0 0-1.414-1.414l-1.939 1.939-.282-.282a1 1 0 0 0-1.414 1.414l.989.989a1 1 0 0 0 1.414 0z" clip-rule="evenodd"/></svg>
